X: 26908
T: Miracle At Glencoe Mills
R: reel
M: 4/4
K: Adorian
|:f|eA A/A/A GABd|eA A/A/A egfd|eA A/A/A GABd|EFGB A/A/A A:|
B|Aa a/a/a gAfA|eA A/A/A GABG|Aa a/a/a gAfA|egfd e2 e/f/g|
aAgA fAef|gdBG BcdB|eA A/A/A GBgB|G/G/G GB A2A||

